X: 39934
T: Thompson's
R: reel
M: 4/4
K: Amajor
ed|:"A" cA=GA EDCD|EAA=G AB=cd|"C" e2 a2 =gage|dBA=G E2 ed|
"A" cA=GA EDCD|EAA=G AB=cd|"C" e2 a2 "G" =gage|1 "A" =cABG A2 ed:|2 "A" =cABG A2 AB||
K: Cmaj
||"C" cege c'ege|cege "G" aege|"C" cege c'ege|(3gag ed "G" cAGA|
"C" cege c'ege|cege ae g2|"Am" (3c'ag ea gedg|edBG "E" EGed||

